source/images/logo--hero.svg

<?xml version="1.0" encoding="UTF-8" standalone="no"?>
<svg width="230px" height="238px" viewBox="0 0 230 238" version="1.1" xmlns="http://www.w3.org/2000/svg" xmlns:xlink="http://www.w3.org/1999/xlink" xmlns:sketch="http://www.bohemiancoding.com/sketch/ns">
    <!-- Generator: Sketch 3.4.4 (17249) - http://www.bohemiancoding.com/sketch -->
    <title>Logo</title>
    <desc>Created with Sketch.</desc>
    <defs>
        <path id="path-1" d="M0.448995215,0.374612551 L155.61866,0.374612551 L155.61866,49.8653903 L0.448995215,49.8653903 L0.448995215,0.374612551 Z"></path>
    </defs>
    <g id="Page-1" stroke="none" stroke-width="1" fill="none" fill-rule="evenodd" sketch:type="MSPage">
        <g id="Landing-Page-Mobile" sketch:type="MSArtboardGroup" transform="translate(-69.000000, -102.000000)">
            <g id="Hero" sketch:type="MSLayerGroup" transform="translate(20.000000, 102.000000)">
                <g id="Logo" transform="translate(49.000000, 0.000000)">
                    <g id="Group-3" transform="translate(37.416268, 187.865741)">
                        <mask id="mask-2" sketch:name="Clip 2" fill="white">
                            <use xlink:href="#path-1"></use>
                        </mask>
                        <g id="Clip-2"></g>
                        <path d="M144.287584,1.19439033 L131.724522,21.4282468 L119.16311,1.19439033 L107.829833,1.19439033 L107.829833,49.0450616 L118.138014,49.0450616 L118.138014,18.0103024 L131.451053,38.2441588 L131.724522,38.2441588 L145.172919,17.8059088 L145.172919,49.0450616 L155.620861,49.0450616 L155.620861,1.19439033 L144.287584,1.19439033 Z M87.4902392,25.2566311 C87.4902392,33.4599181 81.6180861,40.1597283 73.153756,40.1597283 C64.6872249,40.1597283 58.6802632,33.3221866 58.6802632,25.1211033 L58.6802632,24.9833718 C58.6802632,16.7795338 64.551866,10.0824783 73.0161962,10.0824783 C81.4827273,10.0824783 87.4902392,16.9172653 87.4902392,25.1211033 L87.4902392,25.2566311 Z M73.153756,0.374612551 C58.4067943,0.374612551 47.688134,11.5176403 47.688134,25.1211033 L47.688134,25.2566311 C47.688134,38.8595431 58.2714354,49.8653903 73.0161962,49.8653903 C87.7631579,49.8653903 98.4818182,38.7218116 98.4818182,25.1211033 L98.4818182,24.9833718 C98.4818182,11.3799088 87.9007177,0.374612551 73.153756,0.374612551 L73.153756,0.374612551 Z M29.67,17.6681774 C29.67,21.7037098 26.7339234,24.4363024 21.6139474,24.4363024 L10.964067,24.4363024 L10.964067,10.6956588 L21.4098086,10.6956588 C26.5297847,10.6956588 29.67,13.022219 29.67,17.5326496 L29.67,17.6681774 Z M40.3198804,17.1216588 L40.3198804,16.9861311 C40.3198804,7.14273755 33.5623923,1.19439033 22.2973445,1.19439033 L0.448995215,1.19439033 L0.448995215,49.0450616 L10.964067,49.0450616 L10.964067,33.7331774 L19.2242584,33.7331774 L29.4636603,49.0450616 L41.7538038,49.0450616 L30.0782775,31.9558903 C36.1545694,29.7003996 40.3198804,24.847844 40.3198804,17.1216588 L40.3198804,17.1216588 Z" id="Fill-1" fill="#000000" sketch:type="MSShapeGroup" mask="url(#mask-2)"></path>
                    </g>
                    <g id="Group-12" sketch:type="MSShapeGroup">
                        <path d="M223.363014,42.9677977 L188.343038,7.90687181 C187.982081,7.48486255 187.618923,7.06285329 187.2211,6.66288107 C183.106962,2.54360792 177.637033,0.273242181 171.818804,0.264427366 L171.818804,0.273242181 L171.812201,0.264427366 L58.2070574,0.264427366 C52.3800239,0.264427366 46.9012919,2.53534403 42.7811005,6.66288107 C42.3381579,7.10582551 41.9194258,7.56639959 41.5194019,8.04239959 L6.63533493,42.9700014 C6.63093301,42.9766126 6.6265311,42.98102 6.62212919,42.9848764 C6.10215311,43.5082561 5.61188995,44.0503672 5.15188995,44.6139644 C5.13923445,44.631594 5.12822967,44.646469 5.11557416,44.661344 C1.96655502,48.5376588 0.253660287,53.3428348 0.253660287,58.4174135 C0.253660287,62.7388764 1.49830144,66.8664135 3.81535885,70.3895848 C3.83021531,70.4149274 3.84507177,70.4386172 3.86047847,70.462307 C4.23629187,71.0286588 4.6407177,71.5795848 5.07045455,72.1112283 C5.10456938,72.1564042 5.13703349,72.2015801 5.17334928,72.2445524 C5.60583732,72.7739922 6.06748804,73.2819459 6.55334928,73.7744737 C6.58141148,73.8025709 6.60727273,73.8350755 6.63533493,73.8648255 C6.6672488,73.8973301 6.69971292,73.9254274 6.73162679,73.9551774 L99.475,166.816497 C99.5074641,166.849001 99.5355263,166.885363 99.5674402,166.917867 C103.68378,171.040997 109.164713,173.311363 114.995598,173.311363 C114.997799,173.311363 115,173.309159 115,173.309159 C115.002201,173.309159 115.004402,173.311363 115.004402,173.311363 C120.837488,173.311363 126.31622,171.040997 130.43256,166.917867 C130.492536,166.859469 130.544258,166.799418 130.604234,166.738816 L223.363014,73.8626218 C227.478804,69.7416959 229.74634,64.2561264 229.74634,58.4174135 L229.74634,58.4152098 C229.74634,52.5770477 227.478804,47.0914783 223.363014,42.9677977" id="Fill-4" fill="#FFFFFF"></path>
                        <path d="M162.621555,43.9512005 L67.3547847,43.9512005 L52.9088038,58.4152098 L114.988995,120.572876 L177.069737,58.4152098 L162.621555,43.9512005 Z" id="Fill-5" fill="#DC002E"></path>
                        <path d="M182.107727,11.861969 C179.26189,9.01037644 175.530718,7.58402922 171.799545,7.58182551 L171.799545,7.57962181 L74.3422727,7.57962181 C81.8392823,15.8583857 81.85689,28.5230709 74.3917943,36.8238718 L171.799545,36.8238718 L171.799545,36.8216681 C175.530718,36.8172607 179.26189,35.3903626 182.107727,32.53877 C187.812057,26.8295246 187.812057,17.5717653 182.107727,11.861969" id="Fill-6" fill="#EF5A0C"></path>
                        <path d="M68.5218421,11.9826218 C62.8285167,6.27943662 53.562488,6.27943662 47.8664115,11.9826218 L23.2454067,36.636557 C28.6272967,36.9246913 33.6460287,39.1305987 37.4828469,42.9677977 L47.8559569,53.356057 L68.5218421,32.6638301 C74.2179187,26.9611959 74.2179187,17.685807 68.5218421,11.9826218" id="Fill-7" fill="#EFA40C"></path>
                        <path d="M32.3804785,48.1696403 C26.6866029,42.4664551 17.4205742,42.4664551 11.7250478,48.1696403 C6.03117225,53.8700709 6.03117225,63.1476635 11.7266986,68.8508487 L93.2248325,150.45014 C93.467488,145.203122 95.5611483,140.023316 99.5569856,136.024696 L109.841507,125.725136 L32.3804785,48.1696403 Z" id="Fill-8" fill="#759D0C"></path>
                        <path d="M192.495694,73.8626218 L182.215024,63.5696727 L104.654952,141.224335 C98.9616268,146.926969 98.9616268,156.204562 104.654952,161.905543 C110.351029,167.608177 119.617057,167.608177 125.310383,161.907747 L206.911411,80.2048811 C201.460742,79.9575153 196.37323,77.7427931 192.495694,73.8626218" id="Fill-9" fill="#37589F"></path>
                        <path d="M218.251292,48.1696403 L193.525191,23.4121311 C193.219809,28.5621866 191.13055,33.6257468 187.210096,37.551094 C183.307249,41.4593626 178.187273,43.6994274 172.704139,43.9275107 L197.595861,68.8508487 C203.291938,74.5512792 212.555766,74.5512792 218.251292,68.8508487 C223.945167,63.1476635 223.945167,53.8722746 218.251292,48.1696403" id="Fill-10" fill="#A10D87"></path>
                        <path d="M164.637632,18.1006542 L164.637632,26.5457977 L171.940957,30.768094 L179.247033,26.5457977 L179.247033,18.1006542 L171.940957,13.8783579 L164.637632,18.1006542 Z M207.719713,50.0653764 L200.413636,54.2876727 L200.413636,62.7322653 L207.719713,66.9545616 L215.023038,62.7322653 L215.023038,54.2876727 L207.719713,50.0653764 Z M107.683469,147.338511 L107.683469,155.783103 L114.988995,160.0054 L122.292871,155.783103 L122.292871,147.338511 L114.988995,143.115663 L107.683469,147.338511 Z M14.9533014,54.2876727 L14.9533014,62.7322653 L22.2588278,66.9545616 L29.5643541,62.7322653 L29.5643541,54.2876727 L22.2588278,50.0653764 L14.9533014,54.2876727 Z M50.7232536,18.1006542 L50.7232536,26.5457977 L58.0287799,30.768094 L65.3321053,26.5457977 L65.3321053,18.1006542 L58.0287799,13.8783579 L50.7232536,18.1006542 Z" id="Fill-11" fill="#FFFFFF"></path>
                    </g>
                </g>
            </g>
        </g>
    </g>
</svg>

<?xml version="1.0" encoding="utf-8"?>
<!-- Generator: Adobe Illustrator 16.0.4, SVG Export Plug-In . SVG Version: 6.00 Build 0)  -->
<!DOCTYPE svg PUBLIC "-//W3C//DTD SVG 1.1//EN" "http://www.w3.org/Graphics/SVG/1.1/DTD/svg11.dtd">
<svg version="1.1" id="Layer_1" xmlns:sketch="http://www.bohemiancoding.com/sketch/ns"
	 xmlns="http://www.w3.org/2000/svg" xmlns:xlink="http://www.w3.org/1999/xlink" x="0px" y="0px" width="229.493px"
	 height="173.047px" viewBox="0.253 0.265 229.493 173.047" enable-background="new 0.253 0.265 229.493 173.047"
	 xml:space="preserve">
<title>Logo</title>
<desc>Created with Sketch.</desc>
<g id="Page-1" sketch:type="MSPage">
	<g id="Landing-Page-Mobile" transform="translate(-69.000000, -102.000000)" sketch:type="MSArtboardGroup">
		<g id="Hero" transform="translate(20.000000, 102.000000)" sketch:type="MSLayerGroup">
			<g id="Logo" transform="translate(49.000000, 0.000000)">
				<g id="Group-12" sketch:type="MSShapeGroup">
					<path id="Fill-4" fill="#FFFFFF" d="M223.363,42.968l-35.02-35.061c-0.361-0.422-0.725-0.844-1.123-1.244
						c-4.113-4.12-9.584-6.39-15.402-6.398v0.009l-0.006-0.009H58.207c-5.827,0-11.306,2.271-15.426,6.398
						c-0.443,0.443-0.862,0.903-1.262,1.379L6.635,42.97c-0.004,0.006-0.009,0.011-0.013,0.015c-0.52,0.523-1.01,1.065-1.47,1.629
						c-0.013,0.018-0.023,0.033-0.036,0.047c-3.149,3.876-4.862,8.682-4.862,13.756c0,4.321,1.245,8.449,3.562,11.972
						c0.015,0.025,0.03,0.049,0.045,0.073c0.376,0.566,0.78,1.117,1.21,1.649c0.034,0.045,0.067,0.09,0.103,0.133
						c0.433,0.529,0.894,1.037,1.38,1.53c0.028,0.028,0.054,0.061,0.082,0.09c0.032,0.033,0.064,0.061,0.096,0.09l92.744,92.861
						c0.032,0.033,0.061,0.068,0.092,0.102c4.116,4.123,9.597,6.394,15.428,6.394c0.002,0,0.004-0.003,0.004-0.003
						c0.002,0,0.004,0.003,0.004,0.003c5.833,0,11.312-2.271,15.428-6.394c0.06-0.059,0.112-0.119,0.171-0.18l92.76-92.875
						c4.115-4.121,6.383-9.606,6.383-15.445v-0.002C229.746,52.577,227.479,47.091,223.363,42.968"/>
					<path id="Fill-5" fill="#DC002E" d="M162.621,43.951H67.355L52.909,58.415l62.08,62.157l62.082-62.157L162.621,43.951z"/>
					<path id="Fill-6" fill="#EF5A0C" d="M182.107,11.862c-2.846-2.852-6.576-4.278-10.309-4.28V7.58H74.342
						c7.497,8.279,7.515,20.943,0.049,29.244h97.407v-0.002c3.732-0.004,7.463-1.432,10.309-4.283
						C187.812,26.83,187.812,17.572,182.107,11.862"/>
					<path id="Fill-7" fill="#EFA40C" d="M68.522,11.982c-5.693-5.703-14.959-5.703-20.656,0L23.246,36.637
						c5.382,0.288,10.4,2.494,14.237,6.331l10.373,10.388l20.666-20.692C74.218,26.961,74.218,17.686,68.522,11.982"/>
					<path id="Fill-8" fill="#759D0C" d="M32.38,48.169c-5.694-5.703-14.96-5.703-20.655,0c-5.694,5.701-5.694,14.978,0.001,20.682
						l81.498,81.599c0.243-5.247,2.336-10.427,6.333-14.425l10.284-10.301L32.38,48.169z"/>
					<path id="Fill-9" fill="#37589F" d="M192.496,73.863L182.215,63.57l-77.56,77.655c-5.693,5.702-5.693,14.98,0,20.682
						c5.696,5.702,14.962,5.702,20.656,0.002l81.602-81.703C201.461,79.958,196.373,77.743,192.496,73.863"/>
					<path id="Fill-10" fill="#A10D87" d="M218.252,48.169l-24.727-24.757c-0.306,5.15-2.395,10.214-6.315,14.139
						c-3.903,3.908-9.022,6.148-14.506,6.376l24.892,24.923c5.696,5.7,14.96,5.7,20.656,0
						C223.945,63.147,223.945,53.872,218.252,48.169"/>
					<path id="Fill-11" fill="#FFFFFF" d="M164.638,18.101v8.445l7.304,4.222l7.306-4.222v-8.445l-7.306-4.222L164.638,18.101z
						 M207.72,50.065l-7.306,4.222v8.445l7.306,4.222l7.304-4.222v-8.445L207.72,50.065z M107.684,147.338v8.445l7.305,4.223
						l7.304-4.223v-8.445l-7.304-4.223L107.684,147.338z M14.953,54.288v8.445l7.306,4.222l7.306-4.222v-8.445l-7.306-4.222
						L14.953,54.288z M50.723,18.101v8.445l7.306,4.222l7.303-4.222v-8.445l-7.303-4.222L50.723,18.101z"/>
				</g>
			</g>
		</g>
	</g>
</g>
</svg>
